X:141
T:Davie Rea. Ru2.141
%%VWML:RutherfordVol2-2249-p71-0
F:http://www.vwml.org/record/RutherfordVol2/2249/p71
Z:vmp.Steve Mansfield 2015 www.village-music-project.org.uk
M:C|
L:1/8
W:First Cou. Foot it to the 2nd Wo. & turn 3 .|
W:Foot it to the 2d Man & turn 3 :| Cast off one
W:Cou. & Hands round with the 3d Cou. .| Foot it
W:& Hands round with the 2d Cou. :|
Q:1/2=60
K:Em
|:B | E/E/E GA BABd | D/D/D FE DEFD | E/E/E GA B>ABd | BdFd E/E/E E :|
|: f | efge bfge | fddf/g/ (a/g/f/e/) df | efge bfge | dBAF E/E/E E :|
T:Red Wood Fiket or. Ru2.142
B:RUTHERFORD Complete Collection of 200 Country Dances Vol.2; 1759.
Z:vmp.Steve Mansfield 2015 www.village-music-project.org.uk
T:Duchess Of Hamilton's Reel. Ru2.142, The
M:C|
L:1/8
W:First Cou. Gallop down one Cou. up again
W:& cast off .| Gallop down another Cou. up
W:Again & cast off :| Hands round all Six .|.
W:Lead up to the Top foot it & cast off :|
W:Foot it Corners then to your Partners .||
W:Foot it the other Corners & to your Partners :||
W:Lead thro' the 3d Cou. cast up & turn your
W:Partner .||. Lead thro' the Top Cou. cast off
W:& turn your Partner :|
Q:1/2=60
K:Glyd
g | fAeA fAAg | fAeA BGGg | fAeA ceae | gbeg BG G :|
|: g | (f/g/a) ef Tc>BAg | (f/g/a) eg BGGg | (f/g/a) eg (f/g/a) eg | fdec BG G :|
